Obsidian-SemiLight/actions/24s/tab-duplicate.svg

<svg viewBox="0 0 24 24" xmlns="http://www.w3.org/2000/svg"><path d="m4 4v1 14 1h16v-1-12h-1v-2h-2-5-1v1 1h-1v-1-2h-1-4zm1 1h4v3h3 4 1 2v11h-14z" fill="#4d4d4d"/></svg>

<svg xmlns="http://www.w3.org/2000/svg" viewBox="0 0 24 24">
  <defs id="defs3051">
    <style type="text/css" id="current-color-scheme">
      .ColorScheme-Text {
        color:#4d4d4d;
      }
      </style>
  </defs>
 <path style="fill:currentColor;fill-opacity:1;stroke:none" 
     d="M 4 4 L 4 5 L 4 19 L 4 20 L 20 20 L 20 19 L 20 7 L 19 7 L 19 5 L 17 5 L 12 5 L 11 5 L 11 6 L 11 7 L 10 7 L 10 6 L 10 4 L 9 4 L 5 4 L 4 4 z M 5 5 L 9 5 L 9 8 L 12 8 L 16 8 L 17 8 L 19 8 L 19 19 L 5 19 L 5 5 z "
     class="ColorScheme-Text"
     />
</svg>
